barni/images/yt.svg

<svg width="15" height="11" viewBox="0 0 15 11" fill="none" xmlns="http://www.w3.org/2000/svg">
<path d="M7.49933 11H7.49639C7.04434 10.997 3.04336 10.9613 1.90735 10.6485C1.11479 10.4311 0.489543 9.79962 0.275258 8.9954C-0.02122 7.86353 -0.000672033 5.68914 -0.000672033 5.5134C-0.000672033 5.34064 -0.02122 3.14839 0.275258 2.00758V2.0046C0.486608 1.20931 1.12653 0.557 1.90442 0.339561C1.90735 0.339561 1.90735 0.339561 1.91029 0.336583C3.03162 0.0387219 7.0414 0.00297861 7.49346 0H7.50226C7.95725 0.00297861 11.97 0.0387219 13.0913 0.351476C13.8809 0.565936 14.5062 1.20038 14.7205 2.0046C15.0287 3.14541 14.9993 5.34362 14.9964 5.5283C14.9993 5.70999 15.0169 7.8665 14.7205 9.00433V9.00731C14.5062 9.81153 13.8809 10.446 13.0884 10.6604H13.0854C11.9641 10.9583 7.95432 10.997 7.50226 11H7.49933ZM1.40833 2.31438C1.14708 3.32115 1.1735 5.4866 1.1735 5.50745V5.52234C1.16469 6.12402 1.19404 7.86353 1.40833 8.68562C1.51401 9.0788 1.82222 9.39155 2.21264 9.49878C3.04923 9.72813 6.30755 9.79962 7.49933 9.80856C8.69405 9.79962 11.9582 9.73111 12.789 9.5107C13.1794 9.40347 13.4876 9.09071 13.5903 8.69754C13.8075 7.86055 13.834 6.12998 13.8252 5.53425C13.8252 5.5283 13.8252 5.52234 13.8252 5.51638C13.8369 4.90875 13.8134 3.14839 13.5903 2.31736V2.31438C13.4847 1.91822 13.1764 1.60547 12.786 1.49824C11.9582 1.26889 8.69405 1.1974 7.49933 1.18846C6.30461 1.1974 3.04629 1.26591 2.21264 1.48633C1.8281 1.59653 1.51401 1.91822 1.40833 2.31438ZM6.0052 7.9082V3.0918L10.106 5.49851L6.0052 7.9082Z" fill="white"/>
</svg>

<svg width="15" height="11" fill="none" xmlns="http://www.w3.org/2000/svg"><path d="M7.5 11h-.004c-.452-.003-4.453-.039-5.589-.351A2.338 2.338 0 0 1 .275 8.995C-.02 7.864 0 5.69 0 5.513c0-.172-.02-2.365.276-3.505v-.003A2.387 2.387 0 0 1 1.905.34c.002 0 .002 0 .005-.003C3.032.039 7.041.003 7.493 0h.01c.454.003 4.467.039 5.588.351.79.215 1.415.85 1.63 1.654.308 1.14.278 3.339.275 3.523.003.182.02 2.339-.276 3.476v.003a2.333 2.333 0 0 1-1.632 1.653h-.003c-1.12.298-5.13.337-5.583.34H7.5ZM1.407 2.314c-.26 1.007-.234 3.173-.234 3.193v.015c-.01.602.02 2.342.234 3.164.106.393.414.706.805.813.836.23 4.095.3 5.286.31 1.195-.01 4.46-.078 5.29-.298.39-.108.699-.42.801-.813.217-.837.244-2.568.235-3.164v-.018c.012-.607-.012-2.368-.235-3.199v-.003a1.155 1.155 0 0 0-.804-.816c-.828-.23-4.092-.3-5.287-.31-1.194.01-4.453.078-5.286.298-.385.11-.699.432-.805.828Zm4.597 5.594V3.092l4.101 2.407-4.1 2.41Z" fill="#fff"/></svg>
